!!!COM: Mozart	
!!!OTL: Zehn Variationen in G, uber die Ariette 'Unser dummer Pobel meint' aus dem Singspiel 'Die Pilgrime von Mekka'
!!!Variation: Variation 10 b
!!!COM: Mozart
**function	**harm	**kern	**kern
*M3/8	*M3/8	*staff2	*staff1
*G:	*G:	*clefF4	*clefG2
*tb16	*	*k[f#]	*k[f#]
*	*	*met(c|)	*met(c|)
*	*	*M3/8	*M3/8
*	*	*G:	*G:
=-	=-	=-	=-
4.P	4.V65/ii	8eL	8G#L 8B 8d
.	.	8e	8G# 8B 8d
.	.	8eJ	8G#J 8B 8d
=	=	=217	=217
4.P	4.i/ii	16aLL	8A 8c
.	.	16b	.
.	.	16cc	8r
.	.	16ddJ	.
.	.	8eeJ	8r
*	*	*	*clefG2
=	=	=218	=218
4.P	4.V65/ii	8eeL 8eee	8g#L 8b 8dd
.	.	8ee 8eee	8g# 8b 8dd
.	.	8eeJ 8eee	8g#J 8b 8dd
=	=	=219	=219
4.P	4.ii	16eeeLL	8a 8cc
.	.	16ddd	.
.	.	16ccc	8r
.	.	16bbJ	.
.	.	8aaJ	8r
*	*	*	*clefF4
=	=	=220	=220
4.D	4.V65	8dL	8F#L 8A 8c
.	.	8d	8F# 8A 8c
.	.	8dJ	8F#J 8A 8c
=	=	=221	=221
4.D	4.I	16gnLL	8Gn 8B
.	.	16a	.
.	.	16b	8r
.	.	16ccJ	.
.	.	8ddJ	8r
*	*	*	*clefG2
=	=	=222	=222
4.D	4.V65	8ddL 8ddd	8f#L 8a 8cc
.	.	8dd 8ddd	8f# 8a 8cc
.	.	8ddJ 8ddd	8f#J 8a 8cc
=	=	=223	=223
4.T	4.I	16dddLL	8g 8b
.	.	16ccc	.
.	.	16bb	8r
.	.	16aaJ	.
.	.	8ggJ	8r
*	*	*	*clefF4
=	=	=224	=224
*-	*-	*-	*-
